!! 00010] TT[TB
!! Eigene Aufnahme
!!!OTL: Zai yao lanban guxiang Become a young woman
!!!ARE: Neimeng
!! Ethnic Group: Menggu
!! MM, S. 590
!!!SCT: C0549
!!!YEM: Copyright 1995, estate of Helmut Schaffrath.
**kern
*ICvox
*Ivox
*M2/4
*k[]
*C:
{4d
8c
8A
=1
4d
4e
=2
[2a
=3
4a]
4dd}
=4
{4a
8a
8g
=5
4g
8e
8c
=6
4.d
8e
=7
4d
4c}
=8
{4A
4e
=9
4G
4a
=10
[2e
=11
4e]
4a}
=12
{4.e
8c
=13
4d
4c
=14
[2A
=15
4A]
8a
8r}
==
!!!AGN: NN
!! Saenger: Chao Lun Batou, der das Buch nur zum Nachschlagen
!!    benutzte und ansonsten auswendig sang. Da er aus dem Osten der
!!    Neimeng kommt, kennt er nicht so viele Lieder des Westens.
!!    Alle Lieder wurden mit erkaelteter, halber Stimme in meinem
!!    Zimmer gesungen. FOTO VORHANDEN (DIAS)  31.3.87
!!    Variante. 2 Strophen gesungen.
!!!ONB: ESAC (Essen Associative Code) Database: CHINA
!!!AMT: simple duple
!!!AIN: vox
!!!EED: Helmut Schaffrath
!!!EEV: 1.0
*-
!!!ONB: Tied note syntax fixed by Craig Sapp, 2004/05/03/
